svg/u1f468.svg

<svg viewBox="0 0 128 128" xmlns="http://www.w3.org/2000/svg">
  <path id="ears" d="M99.54,63.98h-71.1c-7.67,0-13.94,6.68-13.94,14.85s6.27,14.85,13.94,14.85h71.11 c7.67,0,13.94-6.68,13.94-14.85S107.21,63.98,99.54,63.98z" fill="#E59600"/>
  <path id="head" d="M64,12.39c-22.64,0-43.61,24.21-43.61,59.06c0,34.66,21.61,51.79,43.61,51.79 s43.61-17.13,43.61-51.79C107.61,36.61,86.64,12.39,64,12.39z" fill="#FFCA28"/>
  <g id="eyes_1_">
    <ellipse cx="42.62" cy="74.51" fill="#404040" rx="6.41" ry="6.64"/>
    <ellipse cx="85.38" cy="74.51" fill="#404040" rx="6.41" ry="6.64"/>
  </g>
  <path id="nose_1_" d="M69.02,86.53c-0.14-0.06-0.28-0.09-0.42-0.11h-9.2c-0.14,0.02-0.28,0.05-0.42,0.11 c-0.83,0.34-1.29,1.2-0.9,2.12c0.4,0.92,2.23,3.5,5.92,3.5s5.52-2.58,5.92-3.5C70.31,87.74,69.85,86.87,69.02,86.53z" fill="#E59600"/>
  <path id="mouth_1_" d="M74.95,96.95c-4.14,2.46-17.73,2.46-21.87,0c-2.38-1.42-4.81,0.75-3.82,2.91 c0.97,2.13,8.38,7.06,14.79,7.06s13.73-4.93,14.7-7.06C79.73,97.7,77.33,95.54,74.95,96.95z" fill="#795548"/>
  <g id="hairGroup">
    <path id="hair_7_" d="M64,4.6L64,4.6c-0.01,0-0.01,0-0.02,0s-0.01,0-0.02,0v0 C6.52,4.91,18.29,70.51,18.29,70.51s2.58,6.77,3.75,9.75c0.17,0.43,0.79,0.38,0.89-0.07c1.23-5.49,5.64-24.94,7.87-30.85 c1.31-3.49,4.93-5.51,8.59-4.85c5.63,1.02,14.6,2.28,24.49,2.28c0.04,0,0.07,0,0.11,0c0.03,0,0.07,0,0.11,0 c9.89,0,18.86-1.26,24.49-2.28c3.66-0.66,7.28,1.36,8.59,4.85c2.22,5.89,6.6,25.23,7.84,30.8c0.1,0.45,0.73,0.5,0.9,0.07l3.77-9.69 C109.68,70.51,121.45,4.91,64,4.6z" fill="#543930"/>
    <radialGradient id="hairHighlights_1_" cx="63.9836" cy="68.9513" gradientTransform="matrix(1 0 0 -1.1282 0 136.8382)" gradientUnits="userSpaceOnUse" r="48.1562">
      <stop offset="0.7945" stop-color="#6D4C41" stop-opacity="0"/>
      <stop offset="1" stop-color="#6D4C41"/>
    </radialGradient>
    <path id="hairHighlights" d="M109.68,70.51c0,0,11.77-65.61-45.68-65.91v0 c-0.01,0-0.01,0-0.02,0h0c-0.01,0-0.01,0-0.02,0l0,0c-0.89,0.01-1.77,0.03-2.63,0.06c-1.71,0.07-3.36,0.2-4.95,0.39 c-0.02,0-0.03,0-0.05,0.01C56.22,5.07,56.12,5.09,56,5.11C7.65,11.19,18.29,70.51,18.29,70.51l3.76,9.7 c0.17,0.43,0.79,0.39,0.89-0.06c1.24-5.54,5.64-24.91,7.86-30.81c1.31-3.49,4.93-5.51,8.59-4.85c5.63,1.02,14.6,2.28,24.49,2.28 c0.04,0,0.07,0,0.11,0c0.03,0,0.07,0,0.11,0c9.89,0,18.86-1.26,24.49-2.28c3.66-0.66,7.28,1.36,8.59,4.85 c2.23,5.92,6.64,25.41,7.86,30.87c0.1,0.45,0.72,0.5,0.88,0.07C107.09,77.31,109.68,70.51,109.68,70.51z" fill="url(#hairHighlights_1_)"/>
  </g>
  <g id="eyebrows">
    <path d="M95.18,64.04L95.18,64.04c0.01-0.01-2.96-4.67-9.83-4.67c-6.87,0-9.84,4.66-9.84,4.66l0.01,0.01 c-0.24,0.33-0.39,0.74-0.39,1.19c0,1.12,0.91,2.04,2.04,2.04c0.23,0,0.8-0.17,0.86-0.19c4.11-1.7,7.34-1.71,7.34-1.71 s3.2,0.01,7.31,1.71c0.05,0.02,0.62,0.19,0.86,0.19c1.12,0,2.04-0.91,2.04-2.04C95.57,64.78,95.42,64.37,95.18,64.04z" fill="#6D4C41"/>
    <path d="M52.47,64.04L52.47,64.04c0.01-0.01-2.96-4.67-9.83-4.67s-9.84,4.66-9.84,4.66l0.01,0.01 c-0.24,0.33-0.39,0.74-0.39,1.19c0,1.12,0.91,2.04,2.04,2.04c0.23,0,0.8-0.17,0.85-0.19c4.12-1.7,7.34-1.71,7.34-1.71 s3.2,0.01,7.31,1.71c0.05,0.02,0.62,0.19,0.85,0.19c1.12,0,2.04-0.91,2.04-2.04C52.86,64.78,52.71,64.37,52.47,64.04z" fill="#6D4C41"/>
  </g>
</svg>

<svg viewBox="0 0 128 128" xmlns="http://www.w3.org/2000/svg">
  <defs>
    <radialGradient id="hairHighlights_1_" cx="63.9836" cy="-52.337656" gradientTransform="matrix(1 0 0 -1.1282 0 0)" gradientUnits="userSpaceOnUse" r="48.1562">
      <stop offset="0.7945" stop-color="#6D4C41" stop-opacity="0"/>
      <stop offset="1" stop-color="#6D4C41"/>
    </radialGradient>
  </defs>
  <path id="ears" d="M99.54,63.98 L28.44,63.98 C20.77,63.98 14.5,70.66 14.5,78.83 C14.5,87 20.77,93.68 28.44,93.68 L99.55,93.68 C107.22,93.68 113.49,87 113.49,78.83 C113.49,70.66 107.21,63.98 99.54,63.98 Z" fill="#E59600"/>
  <path id="head" d="M64,12.39 C41.36,12.39 20.39,36.6 20.39,71.45 C20.39,106.11 42,123.24 64,123.24 C86,123.24 107.61,106.11 107.61,71.45 C107.61,36.61 86.64,12.39 64,12.39 Z" fill="#FFCA28"/>
  <path d="M49.03,74.51 A6.41 6.64 0 1 1 36.21,74.51 A6.41 6.64 0 1 1 49.03,74.51 Z" fill="#404040"/>
  <path d="M91.79,74.51 A6.41 6.64 0 1 1 78.97,74.51 A6.41 6.64 0 1 1 91.79,74.51 Z" fill="#404040"/>
  <path id="nose_1_" d="M69.02,86.53 C68.88,86.47 68.74,86.44 68.6,86.42 L59.4,86.42 C59.26,86.44 59.12,86.47 58.98,86.53 C58.15,86.87 57.69,87.73 58.08,88.65 C58.48,89.57 60.31,92.15 64,92.15 C67.69,92.15 69.52,89.57 69.92,88.65 C70.31,87.74 69.85,86.87 69.02,86.53 Z" fill="#E59600"/>
  <path id="mouth_1_" d="M74.95,96.95 C70.81,99.41 57.22,99.41 53.08,96.95 C50.7,95.53 48.27,97.7 49.26,99.86 C50.23,101.99 57.64,106.92 64.05,106.92 C70.46,106.92 77.78,101.99 78.75,99.86 C79.73,97.7 77.33,95.54 74.95,96.95 Z" fill="#795548"/>
  <path id="hair_7_" d="M64,4.6 L64,4.6 C63.99,4.6 63.99,4.6 63.98,4.6 C63.97,4.6 63.97,4.6 63.96,4.6 L63.96,4.6 C6.52,4.91 18.29,70.51 18.29,70.51 C18.29,70.51 20.87,77.28 22.04,80.26 C22.21,80.69 22.83,80.64 22.93,80.19 C24.16,74.7 28.57,55.25 30.8,49.34 C32.11,45.85 35.73,43.83 39.39,44.49 C45.02,45.51 53.99,46.77 63.88,46.77 C63.92,46.77 63.95,46.77 63.99,46.77 C64.02,46.77 64.06,46.77 64.1,46.77 C73.99,46.77 82.96,45.51 88.59,44.49 C92.25,43.83 95.87,45.85 97.18,49.34 C99.4,55.23 103.78,74.57 105.02,80.14 C105.12,80.59 105.75,80.64 105.92,80.21 L109.69,70.52 C109.68,70.51 121.45,4.91 64,4.6 Z" fill="#543930"/>
  <path id="hairHighlights" d="M109.68,70.51 C109.68,70.51 121.45,4.9 64,4.6 L64,4.6 C63.99,4.6 63.99,4.6 63.98,4.6 L63.98,4.6 C63.97,4.6 63.97,4.6 63.96,4.6 L63.96,4.6 C63.07,4.61 62.19,4.63 61.33,4.66 C59.62,4.73 57.97,4.86 56.38,5.05 C56.36,5.05 56.35,5.05 56.33,5.06 C56.22,5.07 56.12,5.09 56,5.11 C7.65,11.19 18.29,70.51 18.29,70.51 L22.05,80.21 C22.22,80.64 22.84,80.6 22.94,80.15 C24.18,74.61 28.58,55.24 30.8,49.34 C32.11,45.85 35.73,43.83 39.39,44.49 C45.02,45.51 53.99,46.77 63.88,46.77 C63.92,46.77 63.95,46.77 63.99,46.77 C64.02,46.77 64.06,46.77 64.1,46.77 C73.99,46.77 82.96,45.51 88.59,44.49 C92.25,43.83 95.87,45.85 97.18,49.34 C99.41,55.26 103.82,74.75 105.04,80.21 C105.14,80.66 105.76,80.71 105.92,80.28 C107.09,77.31 109.68,70.51 109.68,70.51 Z" fill="url(#hairHighlights_1_)"/>
  <path d="M95.18,64.04 L95.18,64.04 C95.19,64.03 92.22,59.37 85.35,59.37 C78.48,59.37 75.51,64.03 75.51,64.03 L75.52,64.04 C75.28,64.37 75.13,64.78 75.13,65.23 C75.13,66.35 76.04,67.27 77.17,67.27 C77.4,67.27 77.97,67.1 78.03,67.08 C82.14,65.38 85.37,65.37 85.37,65.37 C85.37,65.37 88.57,65.38 92.68,67.08 C92.73,67.1 93.3,67.27 93.54,67.27 C94.66,67.27 95.58,66.36 95.58,65.23 C95.57,64.78 95.42,64.37 95.18,64.04 Z" fill="#6D4C41"/>
  <path d="M52.47,64.04 L52.47,64.04 C52.48,64.03 49.51,59.37 42.64,59.37 C35.77,59.37 32.8,64.03 32.8,64.03 L32.81,64.04 C32.57,64.37 32.42,64.78 32.42,65.23 C32.42,66.35 33.33,67.27 34.46,67.27 C34.69,67.27 35.26,67.1 35.31,67.08 C39.43,65.38 42.65,65.37 42.65,65.37 C42.65,65.37 45.85,65.38 49.96,67.08 C50.01,67.1 50.58,67.27 50.81,67.27 C51.93,67.27 52.85,66.36 52.85,65.23 C52.86,64.78 52.71,64.37 52.47,64.04 Z" fill="#6D4C41"/>
</svg>
